X:286
T:The Mouse in the Mug
R:jig
M:6/8
L:1/8
D:Kevin Crawford: In Good Company
Z:Kevin Gow and-or Laura Lovell
K:G
~G3 EGD|~G3 Bdg|~e3 dBG|~A3 BAB|~G3 EGD|~G3 Bdg|~e3 dBG|AGF G3:|
gab agf|g2d edB|deg edB|~A3 BAB|gab agf|g2d edB|deg edB|AGF G3|
gab agf|g2d edB|deg edB|~A3 BAB|~G3 EGD|~G3 Bdg|~e3 dBG|AGF G3||
